dist/svgs/unicons/line/money-bill-stack.svg

<svg xmlns="http://www.w3.org/2000/svg" viewBox="0 0 24 24"><path d="M20 1H4a3 3 0 00-3 3v16a3 3 0 003 3h16a3 3 0 003-3V4a3 3 0 00-3-3zM8 21H4a1 1 0 01-1-1v-1.18A3 3 0 004 19h4zm0-4H4a1 1 0 01-1-1v-1.18A3 3 0 004 15h4zm0-4H4a1 1 0 01-1-1V4a1 1 0 011-1h4zm6 8h-4v-6h4zm0-8h-4V3h4zm7 7a1 1 0 01-1 1h-4v-2h4a3 3 0 001-.18zm0-4a1 1 0 01-1 1h-4v-2h4a3 3 0 001-.18zm0-4a1 1 0 01-1 1h-4V3h4a1 1 0 011 1zm-3-5a1 1 0 101 1 1 1 0 00-1-1zM6 9a1 1 0 10-1-1 1 1 0 001 1z"/></svg>

<svg xmlns="http://www.w3.org/2000/svg" viewBox="0 0 24 24"><path d="M20,1H4A3,3,0,0,0,1,4V20a3,3,0,0,0,3,3H20a3,3,0,0,0,3-3V4A3,3,0,0,0,20,1ZM8,21H4a1,1,0,0,1-1-1V18.82A3,3,0,0,0,4,19H8Zm0-4H4a1,1,0,0,1-1-1V14.82A3,3,0,0,0,4,15H8Zm0-4H4a1,1,0,0,1-1-1V4A1,1,0,0,1,4,3H8Zm6,8H10V15h4Zm0-8H10V3h4Zm7,7a1,1,0,0,1-1,1H16V19h4a3,3,0,0,0,1-.18Zm0-4a1,1,0,0,1-1,1H16V15h4a3,3,0,0,0,1-.18Zm0-4a1,1,0,0,1-1,1H16V3h4a1,1,0,0,1,1,1ZM18,7a1,1,0,1,0,1,1A1,1,0,0,0,18,7ZM6,9A1,1,0,1,0,5,8,1,1,0,0,0,6,9Z"/></svg>
